globe-light.svg

<svg fill="currentColor" viewBox="0 0 24 24"><path d="M7.1 10c1-1 2.4-1.7 3.9-1.9V2h2v6.1c1.5.2 2.9.9 3.9 1.9zm-1.8 3c-.2.6-.3 1.3-.3 2 0 3.9 3.1 7 7 7s7-3.1 7-7c0-.7-.1-1.4-.3-2z"/></svg>

<svg  viewBox="0 0 24 24" fill="currentColor"><path  d="M7.1 10C8.1 9 9.5 8.3 11 8.1V2H13V8.1C14.5 8.3 15.9 9 16.9 10H7.1M5.3 13C5.1 13.6 5 14.3 5 15C5 18.9 8.1 22 12 22S19 18.9 19 15C19 14.3 18.9 13.6 18.7 13H5.3Z"/></svg>
